X: 3003
T: Battery, The
R: reel
M: 4/4
K: Edorian
|:gf|eBGF EGFE|FBBc d2FB|deeg fBBc|dBcA Bcdf|
eBAB GBAF|Bee^d e2ga|bga=f eBGF|Bee^d e2:|
|:ef|g2fg eBfg|eBBA Bzef|g2fg efga|bagb azba|
g2fg eBBA|Bdf^de2^de|gfga bagf|eBfg e2:|

